elementary-icon-theme/elementary/panel/22/gpm-keyboard-100.svg

<?xml version="1.0" encoding="UTF-8" standalone="no"?>
<!-- Created with Inkscape (http://www.inkscape.org/) -->

<svg
   xmlns:dc="http://purl.org/dc/elements/1.1/"
   xmlns:cc="http://creativecommons.org/ns#"
   xmlns:rdf="http://www.w3.org/1999/02/22-rdf-syntax-ns#"
   xmlns:svg="http://www.w3.org/2000/svg"
   xmlns="http://www.w3.org/2000/svg"
   xmlns:xlink="http://www.w3.org/1999/xlink"
   xmlns:sodipodi="http://sodipodi.sourceforge.net/DTD/sodipodi-0.dtd"
   xmlns:inkscape="http://www.inkscape.org/namespaces/inkscape"
   version="1.0"
   width="22"
   height="22"
   id="svg3204"
   sodipodi:version="0.32"
   inkscape:version="0.48.0 r9654"
   sodipodi:docname="gpm-keyboard-100.svg"
   inkscape:output_extension="org.inkscape.output.svg.inkscape">
  <metadata
     id="metadata19">
    <rdf:RDF>
      <cc:Work
         rdf:about="">
        <dc:format>image/svg+xml</dc:format>
        <dc:type
           rdf:resource="http://purl.org/dc/dcmitype/StillImage" />
      </cc:Work>
    </rdf:RDF>
  </metadata>
  <sodipodi:namedview
     inkscape:window-height="706"
     inkscape:window-width="685"
     inkscape:pageshadow="2"
     inkscape:pageopacity="0.0"
     guidetolerance="10.0"
     gridtolerance="10.0"
     objecttolerance="10.0"
     borderopacity="1.0"
     bordercolor="#666666"
     pagecolor="#ffffff"
     id="base"
     showgrid="false"
     inkscape:zoom="10.375"
     inkscape:cx="11.43555"
     inkscape:cy="14.024096"
     inkscape:window-x="399"
     inkscape:window-y="51"
     inkscape:current-layer="svg3204"
     inkscape:window-maximized="0" />
  <defs
     id="defs3206">
    <linearGradient
       id="linearGradient3587-6-5-3">
      <stop
         id="stop3589-9-2-2"
         style="stop-color:#000000;stop-opacity:1"
         offset="0" />
      <stop
         id="stop3591-7-4-73"
         style="stop-color:#363636;stop-opacity:1"
         offset="1" />
    </linearGradient>
    <linearGradient
       inkscape:collect="always"
       xlink:href="#linearGradient3587-6-5-3"
       id="linearGradient2395"
       gradientUnits="userSpaceOnUse"
       x1="7.2891564"
       y1="5"
       x2="7.2891564"
       y2="20.011145"
       gradientTransform="translate(-1,-1)" />
    <linearGradient
       inkscape:collect="always"
       xlink:href="#linearGradient3587-6-5-3"
       id="linearGradient2399"
       gradientUnits="userSpaceOnUse"
       gradientTransform="translate(-24.710843,-1.9586168)"
       x1="41.73494"
       y1="3.9481401"
       x2="41.73494"
       y2="20.989416" />
    <linearGradient
       inkscape:collect="always"
       xlink:href="#linearGradient3587-6-5-3"
       id="linearGradient2402"
       gradientUnits="userSpaceOnUse"
       gradientTransform="matrix(0.4101105,0,0,0.5452071,-33.509578,0.0845009)"
       x1="121.69988"
       y1="10.850004"
       x2="121.69988"
       y2="31.026016" />
  </defs>
  <rect
     style="opacity:0.3;fill:none;stroke:#000000;stroke-width:0.5;stroke-linecap:round;stroke-linejoin:miter;stroke-miterlimit:4;stroke-opacity:1;stroke-dasharray:none;stroke-dashoffset:0;marker:none;visibility:visible;display:inline;overflow:visible;enable-background:accumulate"
     id="rect3236"
     transform="matrix(0,-1,1,0,0,0)"
     y="13.25"
     x="-17.75"
     ry="0.24999999"
     rx="0.25"
     height="5.4999995"
     width="12.5" />
  <rect
     style="opacity:0.6;fill:#ffffff;fill-opacity:1;fill-rule:nonzero;stroke:none;stroke-width:1;marker:none;visibility:visible;display:inline;overflow:visible;enable-background:accumulate"
     id="rect3296"
     y="7"
     x="14"
     ry="0"
     rx="0"
     height="11"
     width="4" />
  <path
     style="opacity:0.6;fill:none;stroke:#ffffff;stroke-width:1;stroke-linecap:round;stroke-linejoin:miter;stroke-miterlimit:4;stroke-opacity:1;stroke-dasharray:none;stroke-dashoffset:0;marker:none;visibility:visible;display:inline;overflow:visible;enable-background:accumulate"
     id="path3214"
     d="m 12.5,18.5 0,-12 c 0,-0.554 0.446,-1 1,-1 l 5,0 c 0.554,0 1,0.446 1,1 l 0,12 c 0,0.554 -0.446,1 -1,1 l -5,0 c -0.554,0 -1,-0.446 -1,-1 z M 14.50264,5.381549 c 7e-4,-0.32804 0.0015,-0.656076 0.0025,-0.984108 0.04076,-0.597825 0.649596,-0.976733 1.212194,-0.897474 0.532922,0.023433 1.176896,-0.124121 1.554865,0.363195 0.350761,0.438478 0.191405,1.0212 0.227797,1.537207"
     inkscape:connector-curvature="0" />
  <rect
     style="opacity:0.7;fill:url(#linearGradient2402);fill-opacity:1;fill-rule:nonzero;stroke:none;stroke-width:1;marker:none;visibility:visible;display:inline;overflow:visible;enable-background:accumulate"
     id="rect3728"
     y="6"
     x="14"
     ry="0"
     rx="0"
     height="11"
     width="4" />
  <path
     style="opacity:0.7;fill:none;stroke:url(#linearGradient2399);stroke-width:1;stroke-linecap:round;stroke-linejoin:miter;stroke-miterlimit:4;stroke-opacity:1;stroke-dasharray:none;stroke-dashoffset:0;marker:none;visibility:visible;display:inline;overflow:visible;enable-background:accumulate"
     id="rect2442"
     d="m 12.5,17.5 0,-12 c 0,-0.554 0.446,-1 1,-1 l 5,0 c 0.554,0 1,0.446 1,1 l 0,12 c 0,0.554 -0.446,1 -1,1 l -5,0 c -0.554,0 -1,-0.446 -1,-1 z M 14.50264,4.381549 c 7e-4,-0.32804 0.0015,-0.656076 0.0025,-0.984108 0.04076,-0.597825 0.649596,-0.976733 1.212194,-0.897474 0.532922,0.023433 1.176896,-0.124121 1.554865,0.363195 0.350761,0.438478 0.191405,1.0212 0.227797,1.537207"
     inkscape:connector-curvature="0" />
  <path
     style="opacity:0.6;fill:#ffffff;fill-opacity:1;fill-rule:evenodd;stroke:none;stroke-width:1.69999993;marker:none;visibility:visible;display:inline;overflow:visible;enable-background:accumulate"
     id="path2424"
     d="M 3,5 C 2.446,5 2,5.446 2,6 l 0,13 c 0,0.554 0.446,1 1,1 l 6,0 c 0.554,0 1,-0.446 1,-1 L 10,6 C 10,5.446 9.554,5 9,5 L 3,5 z M 3,8 4,8 4,9 3,9 3,8 z M 5,8 6,8 6,9 5,9 5,8 z m 3,1 1,0 0,7 -1,0 0,-7 z m -5,1 1,0 0,1 -1,0 0,-1 z m 2,0 1,0 0,1 -1,0 0,-1 z m -2,2 1,0 0,1 -1,0 0,-1 z m 2,0 1,0 0,1 -1,0 0,-1 z m -2,2 1,0 0,1 -1,0 0,-1 z m 2,0 1,0 0,1 -1,0 0,-1 z m -2,2 1,0 0,1 -1,0 0,-1 z m 2,0 1,0 0,1 -1,0 0,-1 z"
     inkscape:connector-curvature="0" />
  <path
     style="opacity:0.7;fill:url(#linearGradient2395);fill-opacity:1;fill-rule:evenodd;stroke:none;stroke-width:1.69999993;marker:none;visibility:visible;display:inline;overflow:visible;enable-background:accumulate"
     id="path2408"
     d="M 3,4 C 2.446,4 2,4.446 2,5 l 0,13 c 0,0.554 0.446,1 1,1 l 6,0 c 0.554,0 1,-0.446 1,-1 L 10,5 C 10,4.446 9.554,4 9,4 L 3,4 z M 3,7 4,7 4,8 3,8 3,7 z M 5,7 6,7 6,8 5,8 5,7 z M 8,8 9,8 9,15 8,15 8,8 z M 3,9 4,9 4,10 3,10 3,9 z m 2,0 1,0 0,1 -1,0 0,-1 z m -2,2 1,0 0,1 -1,0 0,-1 z m 2,0 1,0 0,1 -1,0 0,-1 z m -2,2 1,0 0,1 -1,0 0,-1 z m 2,0 1,0 0,1 -1,0 0,-1 z m -2,2 1,0 0,1 -1,0 0,-1 z m 2,0 1,0 0,1 -1,0 0,-1 z"
     inkscape:connector-curvature="0" />
</svg>

<?xml version="1.0" encoding="UTF-8" standalone="no"?>
<!-- Created with Inkscape (http://www.inkscape.org/) -->
<svg
   xmlns:dc="http://purl.org/dc/elements/1.1/"
   xmlns:cc="http://creativecommons.org/ns#"
   xmlns:rdf="http://www.w3.org/1999/02/22-rdf-syntax-ns#"
   xmlns:svg="http://www.w3.org/2000/svg"
   xmlns="http://www.w3.org/2000/svg"
   xmlns:xlink="http://www.w3.org/1999/xlink"
   xmlns:sodipodi="http://sodipodi.sourceforge.net/DTD/sodipodi-0.dtd"
   xmlns:inkscape="http://www.inkscape.org/namespaces/inkscape"
   version="1.0"
   width="22"
   height="22"
   id="svg3204"
   sodipodi:version="0.32"
   inkscape:version="0.46"
   sodipodi:docname="gpm-keyboard-100.svg"
   inkscape:output_extension="org.inkscape.output.svg.inkscape">
  <metadata
     id="metadata19">
    <rdf:RDF>
      <cc:Work
         rdf:about="">
        <dc:format>image/svg+xml</dc:format>
        <dc:type
           rdf:resource="http://purl.org/dc/dcmitype/StillImage" />
      </cc:Work>
    </rdf:RDF>
  </metadata>
  <sodipodi:namedview
     inkscape:window-height="706"
     inkscape:window-width="640"
     inkscape:pageshadow="2"
     inkscape:pageopacity="0.0"
     guidetolerance="10.0"
     gridtolerance="10.0"
     objecttolerance="10.0"
     borderopacity="1.0"
     bordercolor="#666666"
     pagecolor="#ffffff"
     id="base"
     showgrid="false"
     inkscape:zoom="10.375"
     inkscape:cx="11.43555"
     inkscape:cy="12"
     inkscape:window-x="399"
     inkscape:window-y="51"
     inkscape:current-layer="svg3204" />
  <defs
     id="defs3206">
    <inkscape:perspective
       sodipodi:type="inkscape:persp3d"
       inkscape:vp_x="0 : 12 : 1"
       inkscape:vp_y="0 : 1000 : 0"
       inkscape:vp_z="24 : 12 : 1"
       inkscape:persp3d-origin="12 : 8 : 1"
       id="perspective21" />
    <linearGradient
       x1="121.69988"
       y1="10.850004"
       x2="121.69988"
       y2="31.026016"
       id="linearGradient2419"
       xlink:href="#linearGradient3587-6-5-3"
       gradientUnits="userSpaceOnUse"
       gradientTransform="matrix(0.4101105,0,0,0.5452071,-32.509578,1.0845009)" />
    <linearGradient
       x1="41.73494"
       y1="3.9481401"
       x2="41.73494"
       y2="20.989416"
       id="linearGradient2416"
       xlink:href="#linearGradient3587-6-5-3"
       gradientUnits="userSpaceOnUse"
       gradientTransform="translate(-23.710843,-0.9586168)" />
    <linearGradient
       id="linearGradient3587-6-5-3">
      <stop
         id="stop3589-9-2-2"
         style="stop-color:#000000;stop-opacity:1"
         offset="0" />
      <stop
         id="stop3591-7-4-73"
         style="stop-color:#363636;stop-opacity:1"
         offset="1" />
    </linearGradient>
    <linearGradient
       x1="7.2891564"
       y1="5"
       x2="7.2891564"
       y2="20.011145"
       id="linearGradient3202"
       xlink:href="#linearGradient3587-6-5-3"
       gradientUnits="userSpaceOnUse" />
    <linearGradient
       inkscape:collect="always"
       xlink:href="#linearGradient3587-6-5-3"
       id="linearGradient2395"
       gradientUnits="userSpaceOnUse"
       x1="7.2891564"
       y1="5"
       x2="7.2891564"
       y2="20.011145"
       gradientTransform="translate(-1,-1)" />
    <linearGradient
       inkscape:collect="always"
       xlink:href="#linearGradient3587-6-5-3"
       id="linearGradient2399"
       gradientUnits="userSpaceOnUse"
       gradientTransform="translate(-24.710843,-1.9586168)"
       x1="41.73494"
       y1="3.9481401"
       x2="41.73494"
       y2="20.989416" />
    <linearGradient
       inkscape:collect="always"
       xlink:href="#linearGradient3587-6-5-3"
       id="linearGradient2402"
       gradientUnits="userSpaceOnUse"
       gradientTransform="matrix(0.4101105,0,0,0.5452071,-33.509578,8.45009e-2)"
       x1="121.69988"
       y1="10.850004"
       x2="121.69988"
       y2="31.026016" />
  </defs>
  <rect
     style="opacity:0.3;fill:none;fill-opacity:1;fill-rule:nonzero;stroke:#000000;stroke-width:0.5;stroke-linecap:round;stroke-linejoin:miter;marker:none;marker-start:none;marker-mid:none;marker-end:none;stroke-miterlimit:4;stroke-dasharray:none;stroke-dashoffset:0;stroke-opacity:1;visibility:visible;display:inline;overflow:visible;enable-background:accumulate"
     id="rect3236"
     transform="matrix(0,-1,1,0,0,0)"
     y="13.25"
     x="-17.75"
     ry="0.24999999"
     rx="0.25"
     height="5.4999995"
     width="12.5" />
  <rect
     style="opacity:0.6;fill:#ffffff;fill-opacity:1;fill-rule:nonzero;stroke:none;stroke-width:1;stroke-linecap:butt;stroke-linejoin:miter;marker:none;marker-start:none;marker-mid:none;marker-end:none;stroke-miterlimit:4;stroke-dasharray:none;stroke-dashoffset:0;stroke-opacity:1;visibility:visible;display:inline;overflow:visible;enable-background:accumulate"
     id="rect3296"
     y="7"
     x="14"
     ry="0"
     rx="0"
     height="11"
     width="4" />
  <path
     style="opacity:0.6;fill:none;fill-opacity:1;fill-rule:nonzero;stroke:#ffffff;stroke-width:1;stroke-linecap:round;stroke-linejoin:miter;marker:none;marker-start:none;marker-mid:none;marker-end:none;stroke-miterlimit:4;stroke-dasharray:none;stroke-dashoffset:0;stroke-opacity:1;visibility:visible;display:inline;overflow:visible;enable-background:accumulate"
     id="path3214"
     d="M 12.5,18.5 L 12.5,6.5 C 12.5,5.946 12.946,5.5 13.5,5.5 L 18.5,5.5 C 19.054,5.5 19.5,5.946 19.5,6.5 L 19.5,18.5 C 19.5,19.054 19.054,19.5 18.5,19.5 L 13.5,19.5 C 12.946,19.5 12.5,19.054 12.5,18.5 z M 14.50264,5.381549 C 14.50334,5.053509 14.504168,4.725473 14.505144,4.397441 C 14.545901,3.799616 15.15474,3.420708 15.717338,3.499967 C 16.25026,3.5234 16.894234,3.375846 17.272203,3.863162 C 17.622964,4.30164 17.463608,4.884362 17.5,5.400369" />
  <rect
     style="opacity:0.7;fill:url(#linearGradient2402);fill-opacity:1;fill-rule:nonzero;stroke:none;stroke-width:1;stroke-linecap:butt;stroke-linejoin:miter;marker:none;marker-start:none;marker-mid:none;marker-end:none;stroke-miterlimit:4;stroke-dasharray:none;stroke-dashoffset:0;stroke-opacity:1;visibility:visible;display:inline;overflow:visible;enable-background:accumulate"
     id="rect3728"
     y="6"
     x="14"
     ry="0"
     rx="0"
     height="11"
     width="4" />
  <path
     style="opacity:0.7;fill:none;fill-opacity:1;fill-rule:nonzero;stroke:url(#linearGradient2399);stroke-width:1;stroke-linecap:round;stroke-linejoin:miter;marker:none;marker-start:none;marker-mid:none;marker-end:none;stroke-miterlimit:4;stroke-dasharray:none;stroke-dashoffset:0;stroke-opacity:1;visibility:visible;display:inline;overflow:visible;enable-background:accumulate"
     id="rect2442"
     d="M 12.5,17.5 L 12.5,5.5 C 12.5,4.946 12.946,4.5 13.5,4.5 L 18.5,4.5 C 19.054,4.5 19.5,4.946 19.5,5.5 L 19.5,17.5 C 19.5,18.054 19.054,18.5 18.5,18.5 L 13.5,18.5 C 12.946,18.5 12.5,18.054 12.5,17.5 z M 14.50264,4.381549 C 14.50334,4.053509 14.504168,3.725473 14.505144,3.397441 C 14.545901,2.799616 15.15474,2.420708 15.717338,2.499967 C 16.25026,2.5234 16.894234,2.375846 17.272203,2.863162 C 17.622964,3.30164 17.463608,3.884362 17.5,4.400369" />
  <path
     style="opacity:0.6;fill:#ffffff;fill-opacity:1;fill-rule:evenodd;stroke:none;stroke-width:1.69999993;stroke-linecap:round;stroke-linejoin:miter;marker:none;marker-start:none;marker-mid:none;marker-end:none;stroke-miterlimit:4;stroke-dasharray:none;stroke-dashoffset:0;stroke-opacity:1;visibility:visible;display:inline;overflow:visible;enable-background:accumulate"
     id="path2424"
     d="M 3,5 C 2.446,5 2,5.446 2,6 L 2,19 C 2,19.554 2.446,20 3,20 L 9,20 C 9.554,20 10,19.554 10,19 L 10,6 C 10,5.446 9.554,5 9,5 L 3,5 z M 3,8 L 4,8 L 4,9 L 3,9 L 3,8 z M 5,8 L 6,8 L 6,9 L 5,9 L 5,8 z M 8,9 L 9,9 L 9,16 L 8,16 L 8,9 z M 3,10 L 4,10 L 4,11 L 3,11 L 3,10 z M 5,10 L 6,10 L 6,11 L 5,11 L 5,10 z M 3,12 L 4,12 L 4,13 L 3,13 L 3,12 z M 5,12 L 6,12 L 6,13 L 5,13 L 5,12 z M 3,14 L 4,14 L 4,15 L 3,15 L 3,14 z M 5,14 L 6,14 L 6,15 L 5,15 L 5,14 z M 3,16 L 4,16 L 4,17 L 3,17 L 3,16 z M 5,16 L 6,16 L 6,17 L 5,17 L 5,16 z" />
  <path
     style="opacity:0.7;fill:url(#linearGradient2395);fill-opacity:1;fill-rule:evenodd;stroke:none;stroke-width:1.69999993;stroke-linecap:round;stroke-linejoin:miter;marker:none;marker-start:none;marker-mid:none;marker-end:none;stroke-miterlimit:4;stroke-dasharray:none;stroke-dashoffset:0;stroke-opacity:1;visibility:visible;display:inline;overflow:visible;enable-background:accumulate"
     id="path2408"
     d="M 3,4 C 2.446,4 2,4.446 2,5 L 2,18 C 2,18.554 2.446,19 3,19 L 9,19 C 9.554,19 10,18.554 10,18 L 10,5 C 10,4.446 9.554,4 9,4 L 3,4 z M 3,7 L 4,7 L 4,8 L 3,8 L 3,7 z M 5,7 L 6,7 L 6,8 L 5,8 L 5,7 z M 8,8 L 9,8 L 9,15 L 8,15 L 8,8 z M 3,9 L 4,9 L 4,10 L 3,10 L 3,9 z M 5,9 L 6,9 L 6,10 L 5,10 L 5,9 z M 3,11 L 4,11 L 4,12 L 3,12 L 3,11 z M 5,11 L 6,11 L 6,12 L 5,12 L 5,11 z M 3,13 L 4,13 L 4,14 L 3,14 L 3,13 z M 5,13 L 6,13 L 6,14 L 5,14 L 5,13 z M 3,15 L 4,15 L 4,16 L 3,16 L 3,15 z M 5,15 L 6,15 L 6,16 L 5,16 L 5,15 z" />
</svg>
